!! Stephen C. Foster, "There's a Good Time Coming"
!! from 'Stephen Foster Song Book' Dover Publications (New York) pp. 130-134
!! NOTE:  Leading and trailing bars of rest have been omitted.
**kern
*M4/4
*MM80
*B-:
8.d
16e
=1
4f
4f
16f
8.b-
8f
16r
16b-
=2
4cc
4cc
16b-
8.dd
4r
=3
2r
4r
8r
8dd
=4
4cc
4a
16cc
8.b-
8r
8cc
=5
8cc
8cc
8.dd
16cc
8a
8a
{8.b-
16a}
=6
8g
8g
8.a
16g
8.f
16f
4ff;
=7
2r
4r
8g
8f
=8
4en
4cc;
16g
8.f
8r
8cc
=9
8dd
8b-
8b-
8f
8.g
16f
8f
16r
16f
=10
8en
8f
16a
8.cc
{8b-
8dd}
8dd
16r
16b-
=11
8dd
8b-
8a
8b-
8g
8b-
4f
=12
8.dd
16ee
8g
8a
4b-
8b-
8r
=13
1r
=14
1r
=15
1r
=16
2r
4r
8.d
16e
=17
4f
4f
16f
8.b-
8f
8b-
=18
4cc
4cc
16b-
8.dd
4r
=19
2r
4r
8r
8dd
=20
4cc
4a
16cc
8.b-
8r
8cc
=21
8cc
8cc
8.dd
16cc
8a
8a
8b-
16r
16a
=22
8g
8g
8.a
16g
8.f
16f
4ff;
=23
2r
4r
8g
8f
=24
4en
4cc;
16g
8.f
4r
=25
8dd
8b-
8b-
8f
8.g
16f
8f
16r
16f
=26
8e
8.f
16a
8cc
{8b-
8dd}
8dd
16r
16b-
=27
8dd
8b-
8a
8b-
8g
8b-
4f
=28
8.dd
16ee
8g
8a
4b-
8b-
8r
=29
1r
=30
1r
=31
1r
=32
2r
4r
8.d
16e
=33
4f
4f
16f
8.b-
8f
16r
16b-
=34
4cc
4cc
16b-
8.dd
4r
=35
2r
4r
8r
8dd
=36
4cc
4a
16cc
8.b-
4r
=37
8cc
8cc
8.dd
16cc
8a
8a
8b-
8a
=38
8g
8g
8.a
16g
8.f
16f
4ff;
=39
2r
4r
8g
8f
=40
4e
4cc;
16g
8.f
4r
=41
8dd
8b-
8b-
8f
8g
8f
8f
16r
16f
=42
8en
8f
8a
8cc
{8b-
8dd}
8dd
16r
16dd
=43
8dd
8b-
8a
8b-
8g
8b-
4f
=44
8.dd
16ee
8g
8a
4b-
8b-
8r
=45
1r
=46
1r
=47
1r
=48
2r
4r
8.d
16e
=49
4f
4f
16f
8.b-
8f
16r
16b-
=50
4cc
4cc
16b-
8.dd
4r
=51
2r
4r
8r
8dd
=52
4cc
4a
16cc
8.b-
8.r
16cc
=53
8cc
8cc
8.dd
16cc
8a
8a
{8.b-
16a}
=54
8g
8g
8.a
16g
8.f
16f
4ff;
=55
2r
4r
8g
8f
=56
4e
4cc;
16g
8.f
4r
=57
8.dd
16cc
8b-
8f
8.g
16f
8f
16r
16f
=58
8en
8f
8a
8cc
{8b-
8dd}
8dd
16r
16b-
=59
8dd
8b-
8a
8b-
8g
8b-
4f
=60
8.dd
16ee
8g
8a
4b-
8b-
8r
==
*-
